X: 51
T:Michael Gorman's
M:9/8
L:1/8
C:Michael Gorman
R:slip jig
K:ADor
e2 A A2 G E2 D|E2 A A2 B c2 d|e2 A A2 G E2 D|E2 G GAF G3  :|
|:e2 a a2 ^g a3  |e2 a a2 f gfe|d2 g g2 f g3  |a2 g g2 e d2 f :|
